X:27
T:The Grey Buck
T:Boc Liath Nan Gobhar
T:The Maids of Kintail
T:The Further, The Deeper
D:Éamon Doorley, Muireann Nic Amhlaoibh, Julie Fowlis, Ross Martin: Dual (2008)
R:Jig
M:6/8
K:Amix
|: e2e edB | dBA A2g | dBd dBA | BAG G2g |
   fed efg | a2a e2a | gfe dBd |1 eAA ABd :|2 eAA Ace |
|: a2a efg | a2a e2f | g2g def | g2g d2g |
   fed efg | a2a e2a | gfe dBd |1 eAA Ace :|2 eAA ABd ||

